**kern	**kern	**kern	**kern
*staff3	*staff4	*staff1	*staff2
*clefF4	*clefF4	*clefG2	*clefG2
*k[f#c#]	*k[f#c#]	*k[f#c#]	*k[f#c#]
*M2/4	*M2/4	*M2/4	*M2/4
*D:	*D:	*D:	*D:
=-	=-	=-	=-
*k[f#c#]	*k[f#c#]	*k[f#c#]	*k[f#c#]
2r	8DD'L	8A 8f#	2r
.	8AA'J	8r	.
.	8BB'L	8G 8e	.
.	8C#'J	8r	.
=241	=241	=241	=241
2r	8D'L	4F# [4d	2r
.	8DD'J	.	.
.	8EE'L	8.AL 8.d]	.
.	8FF#'J	.	.
.	.	16c#Jk	.
=242	=242	=242	=242
2r	8GGL	8G 8B	2r
.	8GGGJ	8r	.
.	8BBBL	8D 8G 8B	.
.	8CC#J	8r	.
=243	=243	=243	=243
2r	8DD	8D 8F# 8A	2r
.	8r	8r	.
.	4r	4r	.
*	*	*clefG2	*
=	=	=	=
*M3/8	*M3/8	*M3/8	*M3/8
4.r	8d	8a 8ff#	4.r
.	8r	8r	.
.	(8A# 8c#	(8g 8ee	.
=244	=244	=244	=244
4.r	8B) 8d	8f#) 8dd	4.r
.	8r	8r	.
.	(8F# 8A 8d#	(8cc 8ccc	.
=245	=245	=245	=245
4.r	8G) 8B 8e	8b) 8bb	4.r
.	8r	8r	.
*	*clefG2	*	*
.	(8e 8g	(8cc# 8bb	.
=246	=246	=246	=246
4.r	8f#) 8a	8dd) 8aa	4.r
.	8r	8r	.
.	8r	8r	.
=247	=247	=247	=247
*-	*-	*-	*-
